public/images/constellation-office-hours.svg

<svg fill="none" height="124" viewBox="0 0 102 124" width="102" xmlns="http://www.w3.org/2000/svg" xmlns:xlink="http://www.w3.org/1999/xlink"><mask id="a" height="124" maskUnits="userSpaceOnUse" width="102" x="0" y="0"><path d="m0 0h102v124h-102z" fill="#d9d9d9"/></mask><g mask="url(#a)"><path d="m32.2454 108.046c.2137-.888 1.1211-1.409 2.0104-1.197.8894.212 1.4102 1.117 1.1965 2.005s-1.1211 1.41-2.0104 1.198c-.8658-.265-1.4248-1.156-1.1965-2.006z" fill="#fff"/><path d="m61.7801 22.1424c.345-1.4398 1.8156-2.2782 3.2571-1.9358 1.4416.3424 2.2793 1.8094 1.9342 3.2491-.345 1.4398-1.8156 2.2782-3.2571 1.9358-1.4023-.4301-2.3035-1.8728-1.9342-3.2491z" fill="#fff"/><path d="m84.8895 40.4566c.345-1.4398 1.8156-2.2782 3.2571-1.9358 1.4416.3424 2.2792 1.8094 1.9342 3.2491-.345 1.4398-1.8156 2.2782-3.2571 1.9358-1.4023-.4301-2.3035-1.8728-1.9342-3.2491z" fill="#fff"/><path d="m39.1479 43.2719c.3936 1.0292 1.5487 1.5438 2.5802 1.1494 1.0314-.3944 1.5485-1.5485 1.1549-2.5777-.3935-1.0292-1.5487-1.5438-2.5802-1.1494-1.0314.3944-1.5485 1.5485-1.1549 2.5777z" fill="#fff"/><path d="m47.9529 72.1421c-1.0751-.2791-1.6893-1.352-1.4693-2.3952.2811-1.0738 1.3566-1.6885 2.4012-1.4704 1.0751.2791 1.6892 1.352 1.4693 2.3952-.2811 1.0738-1.3349 1.7456-2.4012 1.4704z" fill="#97bcd1"/><path d="m47.4376 108.115c-1.0228.391-2.19-.129-2.5802-1.15-.3903-1.02.1322-2.186 1.1549-2.578 1.0227-.391 2.19.129 2.5802 1.15.3903 1.02-.1322 2.186-1.1549 2.578z" fill="#fff"/><path d="m39.1587 92.063c-1.0227.3911-2.1899-.1289-2.5802-1.1494-.3902-1.0205.1323-2.1866 1.155-2.5777s2.19.1289 2.5802 1.1494-.1322 2.1866-1.155 2.5777z" fill="#fff"/><path d="m90.5513 61.9263-.6686 2.3263 2.3064.5857-2.3242.6054.6451 2.2963-1.6493-1.7234-1.6758 1.6726.6387-2.2714-2.3122-.6197 2.3324-.565-.6388-2.2987 1.6493 1.7234z" fill="#97bcd1"/><path d="m28.7485 57.9749-1.8998 1.27 1.318 1.8419-2.0506-.9838-.947 2.0672-.1592-2.2908-2.2718.2222 1.9048-1.272-1.3313-1.8768 2.059 1.0207.9519-2.0691.1478 2.2608z" fill="#97bcd1"/><path d="m79.058 17.9431-1.8997 1.2701 1.3179 1.8419-2.0506-.9839-.9469 2.0672-.1592-2.2907-2.2718.2221 1.9047-1.2719-1.3312-1.8769 2.0589 1.0207.952-2.0691.1477 2.2608z" fill="#97bcd1"/><path d="m26.0694 114.986.58 2.211 2.1714-.644-1.5996 1.616 1.6447 1.571-2.2172-.598-.5319 2.22-.5802-2.216-2.2087.646 1.6371-1.613-1.6448-1.576 2.1851.599z" fill="#97bcd1"/><path d="m65.4014 5.44925-1.0211 17.24645-22.6696 19.6035-2.9431 47.8645-31.97509 18.8603" stroke="#fff" stroke-miterlimit="10"/><path d="m53.5287 116.56-7.0115-10.738" stroke="#fff" stroke-miterlimit="10"/><g fill="#97bcd1"><path d="m87.9233 31.6531c-.7683-.2003-1.2144-.9669-1.0532-1.7261.2016-.7673.9702-1.2138 1.7303-1.054s1.2144.967 1.0532 1.7261c-.2017.7673-.9702 1.2138-1.7303 1.054z"/><path d="m54.0809 21.7135c-.8816-.2273-1.3812-1.1113-1.2065-1.9576.2289-.8804 1.1151-1.3805 1.9624-1.2073.8474.1732 1.3812 1.1113 1.2065 1.9576-.2289.8804-1.1151 1.3805-1.9624 1.2073z"/><path d="m17.3367 97.3562c-.4766-.1229-.7467-.6009-.6522-1.0584.1237-.476.6028-.7464 1.061-.6527.4581.0936.7467.6008.6522 1.0583-.1237.476-.6029.7464-1.061.6528z"/><path d="m53.7654 97.4918c-.4765-.1229-.7467-.6008-.6522-1.0584.1238-.476.6029-.7464 1.061-.6527.4581.0936.7467.6008.6522 1.0583-.1237.476-.6028.7464-1.061.6528z"/><path d="m99.7401 30.0333c-.4766-.1229-.7468-.6008-.6523-1.0584.1238-.476.6029-.7464 1.0612-.6527.458.0936.747.6008.652 1.0583-.124.476-.603.7464-1.0609.6528z"/></g><path d="m9.0829 104.218-1.03225 4.536 4.55785.894-4.4604 1.379 1.45342 4.334-3.36881-3.078-3.03364 3.434 1.03468-4.53-4.553933-.903 4.460393-1.379-1.45976-4.331 3.35886 3.147z" fill="#ffa135"/><path d="m59.8328 114.767-3.2356 3.192 3.3338 3.215-4.4887-1.19-1.0565 4.473-1.2009-4.416-4.4362 1.289 3.2534-3.278-3.3556-3.12 4.4582 1.129 1.1025-4.505 1.2353 4.468z" fill="#ffa135"/><path d="m70.7996 1.24905-2.4267 3.93591 3.9326 2.32508-4.5511-.13416-.0489 4.63232-2.2253-4.06778-3.9792 2.31358 2.4204-3.9335-3.9774-2.36607 4.6394.13671.0053-4.593859 2.1782 4.020429z" fill="#ffa135"/><path d="m41.1639 117.3c-.4766-.123-.7467-.601-.6523-1.059.1238-.476.6029-.746 1.061-.653.4581.094.7467.601.6523 1.059-.1238.476-.6029.746-1.061.653z" fill="#97bcd1"/><path d="m49.2757 44.2186c-.736-.1922-1.1531-.9208-.9994-1.6309.1936-.7351.9239-1.1525 1.6349-1.0001.7109.1524 1.1531.9208.9994 1.6308-.1936.7351-.9239 1.1526-1.6349 1.0002z" fill="#97bcd1"/><path d="m64.3799 22.6957 23.0641 18.4623-48.6768 49.0057 8.1737 16.4623-13.3405 1.672" stroke="#fff" stroke-miterlimit="10"/><path d="m54.6291 42.5323c-.3244-.0867-.5149-.4134-.4467-.7301.0873-.324.4148-.5147.7319-.447.3171.0676.5149.4134.4467.7301-.0873.324-.4148.5146-.7319.447z" fill="#97bcd1"/><path d="m53.3031 107.288c-.4854-.127-.7643-.608-.662-1.084.1277-.484.6108-.763 1.0864-.662.4757.101.7643.609.662 1.084-.1277.484-.6107.764-1.0864.662z" fill="#97bcd1"/></g></svg>

<svg width="102" height="124" viewBox="0 0 102 124" fill="none" xmlns="http://www.w3.org/2000/svg">
<mask id="mask0_719_5" style="mask-type:alpha" maskUnits="userSpaceOnUse" x="0" y="0" width="102" height="124">
<rect width="102" height="124" fill="#D9D9D9"/>
</mask>
<g mask="url(#mask0_719_5)">
<path d="M32.2454 108.046C32.4591 107.158 33.3665 106.637 34.2558 106.849C35.1452 107.061 35.666 107.966 35.4523 108.854C35.2386 109.742 34.3312 110.264 33.4419 110.052C32.5761 109.787 32.0171 108.896 32.2454 108.046Z" fill="white"/>
<path d="M61.7801 22.1424C62.1251 20.7026 63.5957 19.8642 65.0372 20.2066C66.4788 20.549 67.3165 22.016 66.9714 23.4557C66.6264 24.8955 65.1558 25.7339 63.7143 25.3915C62.312 24.9614 61.4108 23.5187 61.7801 22.1424Z" fill="white"/>
<path d="M84.8895 40.4566C85.2345 39.0168 86.7051 38.1784 88.1466 38.5208C89.5882 38.8632 90.4258 40.3302 90.0808 41.7699C89.7358 43.2097 88.2652 44.0481 86.8237 43.7057C85.4214 43.2756 84.5202 41.8329 84.8895 40.4566Z" fill="white"/>
<path d="M39.1479 43.2719C39.5415 44.3011 40.6966 44.8157 41.7281 44.4213C42.7595 44.0269 43.2766 42.8728 42.883 41.8436C42.4895 40.8144 41.3343 40.2998 40.3028 40.6942C39.2714 41.0886 38.7543 42.2427 39.1479 43.2719Z" fill="white"/>
<path d="M47.9529 72.1421C46.8778 71.863 46.2636 70.7901 46.4836 69.7469C46.7647 68.6731 47.8402 68.0584 48.8848 68.2765C49.9599 68.5556 50.574 69.6285 50.3541 70.6717C50.073 71.7455 49.0192 72.4173 47.9529 72.1421Z" fill="#97BCD1"/>
<path d="M47.4376 108.115C46.4148 108.506 45.2476 107.986 44.8574 106.965C44.4671 105.945 44.9896 104.779 46.0123 104.387C47.035 103.996 48.2023 104.516 48.5925 105.537C48.9828 106.557 48.4603 107.723 47.4376 108.115Z" fill="white"/>
<path d="M39.1587 92.063C38.136 92.4541 36.9688 91.9341 36.5785 90.9136C36.1883 89.8931 36.7108 88.727 37.7335 88.3359C38.7562 87.9448 39.9235 88.4648 40.3137 89.4853C40.7039 90.5058 40.1815 91.6719 39.1587 92.063Z" fill="white"/>
<path d="M90.5513 61.9263L89.8827 64.2526L92.1891 64.8383L89.8649 65.4437L90.51 67.74L88.8607 66.0166L87.1849 67.6892L87.8236 65.4178L85.5114 64.7981L87.8438 64.2331L87.205 61.9344L88.8543 63.6578L90.5513 61.9263Z" fill="#97BCD1"/>
<path d="M28.7485 57.9749L26.8487 59.2449L28.1667 61.0868L26.1161 60.103L25.1691 62.1702L25.0099 59.8794L22.7381 60.1016L24.6429 58.8296L23.3116 56.9528L25.3706 57.9735L26.3225 55.9044L26.4703 58.1652L28.7485 57.9749Z" fill="#97BCD1"/>
<path d="M79.058 17.9431L77.1583 19.2132L78.4762 21.0551L76.4256 20.0712L75.4787 22.1384L75.3195 19.8477L73.0477 20.0698L74.9524 18.7979L73.6212 16.921L75.6801 17.9417L76.6321 15.8726L76.7798 18.1334L79.058 17.9431Z" fill="#97BCD1"/>
<path d="M26.0694 114.986L26.6494 117.197L28.8208 116.553L27.2212 118.169L28.8659 119.74L26.6487 119.142L26.1168 121.362L25.5366 119.146L23.3279 119.792L24.965 118.179L23.3202 116.603L25.5053 117.202L26.0694 114.986Z" fill="#97BCD1"/>
<path d="M65.4014 5.44925L64.3803 22.6957L41.7107 42.2992L38.7676 90.1637L6.79251 109.024" stroke="white" stroke-miterlimit="10"/>
<path d="M53.5287 116.56L46.5172 105.822" stroke="white" stroke-miterlimit="10"/>
<path d="M87.9233 31.6531C87.155 31.4528 86.7089 30.6862 86.8701 29.927C87.0717 29.1597 87.8403 28.7132 88.6004 28.873C89.3605 29.0328 89.8148 29.84 89.6536 30.5991C89.4519 31.3664 88.6834 31.8129 87.9233 31.6531Z" fill="#97BCD1"/>
<path d="M54.0809 21.7135C53.1993 21.4862 52.6997 20.6022 52.8744 19.7559C53.1033 18.8755 53.9895 18.3754 54.8368 18.5486C55.6842 18.7218 56.218 19.6599 56.0433 20.5062C55.8144 21.3866 54.9282 21.8867 54.0809 21.7135Z" fill="#97BCD1"/>
<path d="M17.3367 97.3562C16.8601 97.2333 16.59 96.7553 16.6845 96.2978C16.8082 95.8218 17.2873 95.5514 17.7455 95.6451C18.2036 95.7387 18.4922 96.2459 18.3977 96.7034C18.274 97.1794 17.7948 97.4498 17.3367 97.3562Z" fill="#97BCD1"/>
<path d="M53.7654 97.4918C53.2889 97.3689 53.0187 96.891 53.1132 96.4334C53.237 95.9574 53.7161 95.687 54.1742 95.7807C54.6323 95.8743 54.9209 96.3815 54.8264 96.839C54.7027 97.315 54.2236 97.5854 53.7654 97.4918Z" fill="#97BCD1"/>
<path d="M99.7401 30.0333C99.2635 29.9104 98.9933 29.4325 99.0878 28.9749C99.2116 28.4989 99.6907 28.2285 100.149 28.3222C100.607 28.4158 100.896 28.923 100.801 29.3805C100.677 29.8565 100.198 30.1269 99.7401 30.0333Z" fill="#97BCD1"/>
<path d="M9.0829 104.218L8.05065 108.754L12.6085 109.648L8.1481 111.027L9.60152 115.361L6.23271 112.283L3.19907 115.717L4.23375 111.187L-0.320183 110.284L4.14021 108.905L2.68045 104.574L6.03931 107.721L9.0829 104.218Z" fill="#FFA135"/>
<path d="M59.8328 114.767L56.5972 117.959L59.931 121.174L55.4423 119.984L54.3858 124.457L53.1849 120.041L48.7487 121.33L52.0021 118.052L48.6465 114.932L53.1047 116.061L54.2072 111.556L55.4425 116.024L59.8328 114.767Z" fill="#FFA135"/>
<path d="M70.7996 1.24905L68.3729 5.18496L72.3055 7.51004L67.7544 7.37588L67.7055 12.0082L65.4802 7.94042L61.501 10.254L63.9214 6.3205L59.944 3.95443L64.5834 4.09114L64.5887 -0.502719L66.7669 3.51771L70.7996 1.24905Z" fill="#FFA135"/>
<path d="M41.1639 117.3C40.6873 117.177 40.4172 116.699 40.5116 116.241C40.6354 115.765 41.1145 115.495 41.5726 115.588C42.0307 115.682 42.3193 116.189 42.2249 116.647C42.1011 117.123 41.622 117.393 41.1639 117.3Z" fill="#97BCD1"/>
<path d="M49.2757 44.2186C48.5397 44.0264 48.1226 43.2978 48.2763 42.5877C48.4699 41.8526 49.2002 41.4352 49.9112 41.5876C50.6221 41.74 51.0643 42.5084 50.9106 43.2184C50.717 43.9535 49.9867 44.371 49.2757 44.2186Z" fill="#97BCD1"/>
<path d="M64.3799 22.6957L87.444 41.158L38.7672 90.1637L46.9409 106.626L33.6004 108.298" stroke="white" stroke-miterlimit="10"/>
<path d="M54.6291 42.5323C54.3047 42.4456 54.1142 42.1189 54.1824 41.8022C54.2697 41.4782 54.5972 41.2875 54.9143 41.3552C55.2314 41.4228 55.4292 41.7686 55.361 42.0853C55.2737 42.4093 54.9462 42.5999 54.6291 42.5323Z" fill="#97BCD1"/>
<path d="M53.3031 107.288C52.8177 107.161 52.5388 106.68 52.6411 106.204C52.7688 105.72 53.2519 105.441 53.7275 105.542C54.2032 105.643 54.4918 106.151 54.3895 106.626C54.2618 107.11 53.7788 107.39 53.3031 107.288Z" fill="#97BCD1"/>
</g>
</svg>
